aliba_games/img/icon-safecharge.svg

<svg width="91" height="14" viewBox="0 0 91 14" fill="none" xmlns="http://www.w3.org/2000/svg">
<path d="M76.3655 9.38071C75.1313 9.38071 75.0607 8.53437 75.2723 7.12382C75.4839 5.85432 75.9423 4.7964 77.3882 4.7964H78.5166C78.9398 4.7964 79.0456 5.04325 78.975 5.36062L78.1287 9.38071H76.3655ZM71.9575 14.0003H76.0481C78.6224 14.0003 79.6803 13.1187 80.2445 10.4739L81.514 4.54955C81.6903 3.73848 81.3024 3.0332 80.3151 3.0332H77.1766C74.3555 3.0332 73.4386 4.4085 72.8744 6.8417C72.3102 9.27491 73.0507 11.1439 75.625 11.1439H77.7408C77.5292 12.0608 76.9297 12.2371 75.9776 12.2371H72.3454L71.9575 14.0003Z" fill="white"/>
<path d="M65.5748 11.1081H67.9375L69.1012 5.78324C69.2775 4.93691 69.8417 4.76059 70.547 4.76059H71.2875C72.0281 4.76059 72.7334 4.47848 72.7334 3.66741C72.7334 3.45582 72.6981 3.17371 72.5218 2.8916C72.3807 2.96213 72.0633 2.99739 71.746 2.99739H70.1238C68.537 2.99739 67.1617 3.66741 66.7033 5.74798L65.5748 11.1081Z" fill="white"/>
<path d="M27.0665 1.83372C28.0891 1.83372 28.7239 1.30476 28.7239 0.670014C28.7239 0.458431 28.6886 0.211583 28.5828 0C28.5828 0 28.3007 0.105792 27.5602 0.105792H26.2202C24.457 0.105792 23.1522 0.81107 22.6585 3.0327H21.5301L21.1774 4.65484H22.3764L21.0011 11.1434H23.3638L24.7743 4.65484H26.5375L26.8902 3.0327H25.0564C25.2328 2.11583 25.797 1.86899 26.467 1.86899H27.0665V1.83372Z" fill="white"/>
<path d="M59.1214 11.1087H62.3304C63.4941 11.1087 64.0583 10.5445 64.2699 9.5924L65.1163 5.32546C65.1515 5.18441 65.1515 5.04335 65.1515 4.9023C65.1515 3.80912 64.2699 2.99805 63.0709 2.99805H58.2045L57.8872 4.69071H62.1188C62.5773 4.69071 62.8241 4.86703 62.8241 5.21967C62.8241 5.25494 62.8241 5.32546 62.8241 5.36073L62.7183 5.99548H59.474C57.4993 5.99548 56.5471 6.91234 56.4766 8.64027C56.4413 10.2977 57.3229 11.1087 59.1214 11.1087ZM59.7209 9.38081C59.2624 9.38081 58.9451 9.0987 58.9451 8.64027C58.9451 8.00552 59.3682 7.61762 59.9677 7.61762H62.4715L62.2246 8.78133C62.1541 9.16923 61.872 9.38081 61.5546 9.38081H59.7209Z" fill="white"/>
<path d="M46.5674 11.1082H48.9301L50.3054 4.79596H51.8922C53.2675 4.79596 53.5144 5.18386 53.197 6.55915L52.1744 11.1435H54.5723L55.7007 5.95967C56.0886 4.23173 54.8897 3.06803 52.9149 3.06803H50.6933L51.187 0.458496H48.789L46.5674 11.1082Z" fill="white"/>
<path d="M41.7009 11.1078H45.051L45.4742 9.02718H42.7236C40.502 9.02718 39.2325 8.53349 39.6909 5.67711C40.0788 3.24391 41.1014 2.50336 43.5347 2.50336H45.2978C46.3558 2.50336 47.0258 1.83335 47.0258 1.05754C47.0258 0.810697 46.9553 0.563849 46.8142 0.281738C46.8142 0.281738 46.5673 0.38753 45.8621 0.38753H43.5347C39.7262 0.38753 37.7514 1.93914 37.1872 5.5008C36.5877 9.13298 38.4214 11.1078 41.7009 11.1078Z" fill="white"/>
<path d="M29.7819 6.17076C29.9935 4.97179 30.6635 4.58389 31.7567 4.58389C32.5325 4.58389 33.2731 4.79547 33.2731 5.50075C33.2731 5.95918 32.9557 6.17076 32.6736 6.17076H29.7819ZM29.7467 11.1077H34.2252L34.6131 9.34452H30.7341C29.7114 9.34452 29.2882 9.06241 29.3588 8.39239L29.394 7.7929H33.2025C35.2478 7.7929 35.7063 6.34708 35.7063 5.2539C35.7063 3.45544 34.2957 2.85596 31.8272 2.85596C28.9709 2.85596 27.8424 3.63176 27.2077 6.55867C26.5729 9.37978 27.0666 11.1077 29.7467 11.1077Z" fill="white"/>
<path d="M85.0404 6.17076C85.252 4.97179 85.922 4.58389 87.0152 4.58389C87.791 4.58389 88.5315 4.79547 88.5315 5.50075C88.5315 5.95918 88.2141 6.17076 87.932 6.17076H85.0404ZM85.0404 11.1077H89.5189L89.9068 9.34452H86.0278C85.0051 9.34452 84.5819 9.06241 84.6525 8.39239L84.6877 7.7929H88.4962C90.5415 7.7929 91 6.34708 91 5.2539C91 3.45544 89.5894 2.85596 87.1209 2.85596C84.2646 2.85596 83.1361 3.63176 82.5014 6.55867C81.8666 9.37978 82.3603 11.1077 85.0404 11.1077Z" fill="white"/>
<path d="M13.8426 11.1087H17.0516C18.2153 11.1087 18.7795 10.5445 18.9911 9.5924L19.8374 5.32546C19.8727 5.18441 19.8727 5.04335 19.8727 4.9023C19.8727 3.80912 18.9911 2.99805 17.7921 2.99805H12.961L12.6436 4.69071H16.8753C17.3337 4.69071 17.5805 4.86703 17.5805 5.21967C17.5805 5.25494 17.5805 5.32546 17.5805 5.36073L17.4395 6.03074H14.2305C12.2557 6.03074 11.3036 6.9476 11.233 8.67554C11.1625 10.2977 12.0794 11.1087 13.8426 11.1087ZM14.442 9.38081C13.9836 9.38081 13.6662 9.0987 13.6662 8.64027C13.6662 8.00552 14.0894 7.61762 14.6889 7.61762H17.1926L16.9458 8.78133C16.8753 9.16923 16.5931 9.38081 16.2758 9.38081H14.442Z" fill="white"/>
<path d="M0.512817 11.1078H5.9082C8.41193 11.1078 10.0341 10.0498 10.1399 7.75768C10.2104 6.02975 9.39932 4.68973 7.28349 4.68973H5.23818C4.42711 4.68973 4.10974 4.30182 4.145 3.7376C4.18026 2.96179 4.70922 2.4681 5.8024 2.4681H9.39932C10.4572 2.4681 11.1625 1.79809 11.1625 0.951752C11.1625 0.740169 11.1273 0.493322 11.0215 0.281738C11.0215 0.281738 10.7394 0.38753 9.99881 0.38753H5.83767C3.43972 0.38753 1.78232 1.55124 1.67653 3.70234C1.57073 5.78291 2.84023 6.73503 4.56817 6.73503H6.40189C7.24822 6.73503 7.63613 7.01714 7.60086 7.72242C7.53033 8.63928 6.93085 9.02718 5.9082 9.02718H0.935984L0.512817 11.1078Z" fill="white"/>
</svg>

<svg width="91" height="14" fill="none" xmlns="http://www.w3.org/2000/svg"><path d="M76.365 9.38c-1.234 0-1.304-.846-1.093-2.256.212-1.27.67-2.328 2.116-2.328h1.129c.423 0 .529.247.458.565l-.846 4.02h-1.764zM71.959 14h4.09c2.574 0 3.632-.881 4.197-3.526l1.269-5.924c.176-.812-.212-1.517-1.199-1.517h-3.138c-2.822 0-3.738 1.376-4.303 3.809-.564 2.433.177 4.302 2.751 4.302h2.116c-.212.917-.811 1.093-1.763 1.093h-3.633L71.957 14zM65.575 11.108h2.362l1.164-5.325c.177-.846.74-1.022 1.446-1.022h.74c.741 0 1.446-.283 1.446-1.094 0-.211-.035-.493-.211-.775-.141.07-.459.105-.776.105h-1.622c-1.587 0-2.962.67-3.42 2.751l-1.13 5.36zM27.067 1.834c1.022 0 1.657-.53 1.657-1.164 0-.212-.035-.458-.141-.67 0 0-.282.106-1.023.106h-1.34c-1.763 0-3.068.705-3.561 2.927H21.53l-.353 1.622h1.2L21 11.143h2.363l1.41-6.488h1.764l.352-1.622h-1.834c.177-.917.741-1.164 1.411-1.164h.6v-.035zM59.121 11.109h3.21c1.163 0 1.727-.565 1.939-1.517l.846-4.267c.035-.14.035-.282.035-.423 0-1.093-.881-1.904-2.08-1.904h-4.866l-.318 1.693h4.232c.458 0 .705.176.705.529v.14l-.106.635h-3.244c-1.975 0-2.927.917-2.997 2.645-.036 1.658.846 2.469 2.644 2.469zm.6-1.728c-.459 0-.776-.282-.776-.74 0-.635.423-1.023 1.023-1.023h2.503l-.246 1.163c-.07.388-.353.6-.67.6H59.72zM46.567 11.108h2.363l1.375-6.312h1.587c1.375 0 1.622.388 1.305 1.763l-1.023 4.584h2.398l1.129-5.183c.388-1.728-.811-2.892-2.786-2.892h-2.222l.494-2.61h-2.398l-2.222 10.65zM41.7 11.108h3.351l.423-2.08h-2.75c-2.222 0-3.491-.495-3.033-3.35.388-2.434 1.41-3.175 3.844-3.175h1.763c1.058 0 1.728-.67 1.728-1.445 0-.247-.07-.494-.212-.776 0 0-.247.106-.952.106h-2.327c-3.809 0-5.784 1.551-6.348 5.113-.6 3.632 1.234 5.607 4.514 5.607zM29.782 6.17c.212-1.198.881-1.586 1.975-1.586.775 0 1.516.211 1.516.917 0 .458-.317.67-.6.67h-2.891zm-.035 4.938h4.478l.388-1.763h-3.879c-1.023 0-1.446-.283-1.375-.953l.035-.6h3.809c2.045 0 2.503-1.445 2.503-2.538 0-1.799-1.41-2.398-3.879-2.398-2.856 0-3.985.776-4.62 3.703-.634 2.82-.14 4.549 2.54 4.549zM85.04 6.17c.212-1.198.882-1.586 1.975-1.586.776 0 1.516.211 1.516.917 0 .458-.317.67-.599.67H85.04zm0 4.938h4.479l.388-1.763h-3.88c-1.022 0-1.445-.283-1.374-.953l.035-.6h3.808C90.542 7.793 91 6.348 91 5.255c0-1.799-1.41-2.398-3.88-2.398-2.855 0-3.984.776-4.619 3.703-.634 2.82-.14 4.549 2.54 4.549zM13.843 11.109h3.209c1.163 0 1.727-.565 1.94-1.517l.845-4.267c.036-.14.036-.282.036-.423 0-1.093-.882-1.904-2.08-1.904H12.96l-.317 1.693h4.231c.459 0 .706.176.706.529v.14l-.142.67H14.23c-1.974 0-2.926.918-2.997 2.646-.07 1.622.846 2.433 2.61 2.433zm.599-1.728c-.458 0-.776-.282-.776-.74 0-.635.423-1.023 1.023-1.023h2.504l-.247 1.163c-.07.388-.353.6-.67.6h-1.834zM.513 11.108h5.395c2.504 0 4.126-1.058 4.232-3.35.07-1.728-.74-3.068-2.857-3.068H5.238c-.81 0-1.128-.388-1.093-.952.035-.776.564-1.27 1.657-1.27H9.4c1.058 0 1.764-.67 1.764-1.516 0-.212-.036-.459-.142-.67 0 0-.282.106-1.022.106H5.838C3.44.388 1.782 1.55 1.677 3.702 1.57 5.782 2.84 6.735 4.568 6.735h1.834c.846 0 1.234.282 1.199.987-.07.917-.67 1.305-1.693 1.305H.936l-.423 2.08z" fill="#fff"/></svg>
